dist/images/ico-faq.svg

<svg xmlns="http://www.w3.org/2000/svg" xmlns:xlink="http://www.w3.org/1999/xlink" preserveAspectRatio="none" width="100" height="100" viewBox="0 0 100 100"><defs><path fill="#c39c4d" d="M83.9 79.7h6.9V43.45H80.75l-1.65.9v.45h1.05v23.45H40.8V80.3h33.15l5.25 7.45 4.7-8.05z" id="a"/><path fill="#c39c4d" d="M81.35 69.7V16.25h-71.3V69.7h11.7v-2.5h-8.6V18.35H78.7V67.2H33.3v2.5h48.05z" id="b"/><path fill="#c39c4d" d="M43.8 47.2H20.2v2.4h23.6v-2.4m4.3 8.5h23.6v-2.4H48.1v2.4m-27.9-2.4v2.4h23.6v-2.4H20.2M27.6 76l-5.8-8.7-2.3 1.5 7.2 10.8.95 1.2 8.05-12.05-2.3-1.5L27.6 76m-3.75-42.3q1.6 0 2.7-1.15 1.15-1.1 1.15-2.7t-1.15-2.75q-1.1-1.1-2.7-1.1t-2.75 1.1Q20 28.25 20 29.85t1.1 2.7q1.15 1.15 2.75 1.15M71.7 47.2H48.1v2.4h23.6v-2.4m.3-15.65V28.9H32.3v2.65H72m-28.2 12.1v-2.4H20.2v2.4h23.6m4.3-2.4v2.4h23.6v-2.4H48.1M79.45 17.7v-1.05h-68.6v2.1H78.4v51.6h1.45V17.7h-.4z" id="c"/></defs><use xlink:href="#a"/><use xlink:href="#b"/><use xlink:href="#c"/></svg>

<svg xmlns="http://www.w3.org/2000/svg" version="1.1" xmlns:xlink="http://www.w3.org/1999/xlink" preserveAspectRatio="none" x="0px" y="0px" width="100px" height="100px" viewBox="0 0 100 100">
<defs>
<g id="Layer2_0_FILL">
<path fill="#c39c4d" stroke="none" d="
M 83.9 79.7
L 90.8 79.7 90.8 43.45 80.75 43.45 79.1 44.35 79.1 44.8 80.15 44.8 80.15 68.25 40.8 68.25 40.8 80.3 73.95 80.3 79.2 87.75 83.9 79.7 Z"/>
</g>

<g id="Layer1_0_FILL">
<path fill="#c39c4d" stroke="none" d="
M 81.35 69.7
L 81.35 16.25 10.05 16.25 10.05 69.7 21.75 69.7 21.75 67.2 13.15 67.2 13.15 18.35 78.7 18.35 78.7 67.2 33.3 67.2 33.3 69.7 81.35 69.7 Z"/>
</g>

<g id="Layer0_0_FILL">
<path fill="#c39c4d" stroke="none" d="
M 43.8 47.2
L 20.2 47.2 20.2 49.6 43.8 49.6 43.8 47.2
M 48.1 55.7
L 71.7 55.7 71.7 53.3 48.1 53.3 48.1 55.7
M 20.2 53.3
L 20.2 55.7 43.8 55.7 43.8 53.3 20.2 53.3
M 27.6 76
L 21.8 67.3 19.5 68.8 26.7 79.6 27.65 80.8 35.7 68.75 33.4 67.25 27.6 76
M 23.85 33.7
Q 25.45 33.7 26.55 32.55 27.7 31.45 27.7 29.85 27.7 28.25 26.55 27.1 25.45 26 23.85 26 22.25 26 21.1 27.1 20 28.25 20 29.85 20 31.45 21.1 32.55 22.25 33.7 23.85 33.7
M 71.7 47.2
L 48.1 47.2 48.1 49.6 71.7 49.6 71.7 47.2
M 72 31.55
L 72 28.9 32.3 28.9 32.3 31.55 72 31.55
M 43.8 43.65
L 43.8 41.25 20.2 41.25 20.2 43.65 43.8 43.65
M 48.1 41.25
L 48.1 43.65 71.7 43.65 71.7 41.25 48.1 41.25
M 79.45 17.7
L 79.45 16.65 10.85 16.65 10.85 18.75 78.4 18.75 78.4 70.35 79.85 70.35 79.85 17.7 79.45 17.7 Z"/>
</g>
</defs>

<g transform="matrix( 1, 0, 0, 1, 0,0) ">
<use xlink:href="#Layer2_0_FILL"/>
</g>

<g transform="matrix( 1, 0, 0, 1, 0,0) ">
<use xlink:href="#Layer1_0_FILL"/>
</g>

<g transform="matrix( 1, 0, 0, 1, 0,0) ">
<use xlink:href="#Layer0_0_FILL"/>
</g>
</svg>
